!!!COM: Bach, Johann Sebastian
!!!CDT: 1685/3//-1750/7/28/
!!!OTL@@DE: Freu' dich sehr, O meine Seele
!!!AGN: 4-Part Chorale
!!!SCT: BH 282
!!!SCT: BWV 25
**harm	**root	**kern	**kern	**kern	**kern
!	!	!bass	!tenor	!alto	!soprno
*	*Iorgan	*Iorgan	*Iorgan	*Iorgan	*Iorgan
*M4/4	*M4/4	*M4/4	*M4/4	*M4/4	*M4/4
*met(c)	*met(c)	*met(c)	*met(c)	*met(c)	*met(c)
*MM60	*MM60	*MM60	*MM60	*MM60	*MM60
*k[f#c#]	*k[f#c#]	*k[f#c#]	*k[f#c#]	*k[f#c#]	*k[f#c#]
*D:	*D:	*D:	*D:	*D:	*D:
*>[A,A,B]	*>[A,A,B]	*>[A,A,B]	*>[A,A,B]	*>[A,A,B]	*>[A,A,B]
*>A	*>A	*>A	*>A	*>A	*>A
=1-	=1-	=1-	=1-	=1-	=1-
I	4CC	4D	4f#	4a	4dd
V	4GG	4A	4c#	4a	4ee
I	4CC	4d	4d	4a	4ff#
Vb	4GG	4c#	4e	4a	4ee
=2	=2	=2	=2	=2	=2
vi	4AA	4B	8f#	4b	4dd
.	.	.	8g#	.	.
V	4GG	4A	4a	4e	4cc#
V/V	4DD	4E	8a	4e	4b
.	.	.	8g#	.	.
V;	4GG;	4A;	4c#;	4e;	4a;
=3	=3	=3	=3	=3	=3
Ib	4CC	4F#	4d	4a	4dd
ii	4DD	4E	4g	8b	4ee
.	.	.	.	8cc#	.
I	4CC	4D	8a	8dd	4ff#
.	.	.	8d	8a	.
Vb	4GG	4C#	[4e	4a	8ee
.	.	.	.	.	16ff#
.	.	.	.	.	16gg
=4	=4	=4	=4	=4	=4
I	4CC	4D	8e]	4a	4ff#
.	.	.	8d	.	.
V	4GG	4AA	8d	4a	8.ee
.	.	.	8c#	.	.
.	.	.	.	.	16dd
I;	2CC;	2D;	2f#;	2a;	2dd;
*>B	*>B	*>B	*>B	*>B	*>B
=5:|!	=5:|!	=5:|!	=5:|!	=5:|!	=5:|!
I	4CC	4d	4d	4a	4ff#
IVb	4FF	4B	4d	8b	4gg
.	.	.	.	16cc	.
.	.	.	.	16dd	.
I7b	4CC	4F#	4d	4cc	4aa
IV	4FF	4G	8d	4b	4gg
.	.	.	8e	.	.
=6	=6	=6	=6	=6	=6
V7b/ii	4AA	4D#	8f#	4a	4ff#
.	.	.	8B	.	.
ii	4DD	4E	8B	8g	4ee
.	.	.	8c#	16b	.
.	.	.	.	16a#	.
VI;	2AA;	2BB;	2d#;	2b;	2ff#;
!!linebreak: 2
=7	=7	=7	=7	=7	=7
Ib	4CC	4F#	8d	4a	4aa
.	.	.	8e	.	.
I	4CC	4D	4f#	4dd	4aa
IV	4FF	4G	8g	4dd	4bb
.	.	.	8f#	.	.
V	4GG	4A	4e	4cc#	4aa
=8	=8	=8	=8	=8	=8
IVb	4FF	8B	4d	4b	4gg
.	.	8c#	.	.	.
I	4CC	4d	4d	8a	4ff#
.	.	.	.	8g#	.
V;	2GG;	2A;	2c#;	2a;	2ee;
=9	=9	=9	=9	=9	=9
I	4CC	4d	8d	4a	4ff#
.	.	.	8e	.	.
I	4CC	4D	4f#	8dd	4aa
.	.	.	.	8cc#	.
ii	4DD	4E	4g	8b	4gg
.	.	.	.	8cc#	.
Ib	4CC	4F#	8a	4dd	8ff#
.	.	.	8A	.	8ee
=10	=10	=10	=10	=10	=10
IV7	4FF	4G	8B	4b	4dd
.	.	.	8f#	.	.
Vb/V	4DD	4G#	8e	4b	4ee
.	.	.	8d	.	.
iiib	4EE	4A	2c#	4cc#	2ff#
Vb/vi	4EE	4A#	.	4f#	.
=11	=11	=11	=11	=11	=11
vi;	2AA;	2B;	2B;	2f#;	2dd;
iiiob	4EE	4A	4c	8a	4ff#
.	.	.	.	8b	.
V7/IV	4CC	4D	4F#	4cc	4aa
=12	=12	=12	=12	=12	=12
ii	4DD	4E	4G	8b	4gg
.	.	.	.	8cc#	.
Ib	4CC	8F#	8A	4dd	4ff#
.	.	8G	8B	.	.
V	4GG	8A	4c#	4a	4ee
.	.	8G	.	.	.
Ib	4CC	8F#	4d	4a	4dd
.	.	8D	.	.	.
=13	=13	=13	=13	=13	=13
V	2GG	2AA	4d	2a	2ee
.	.	.	4c#	.	.
I;	2CC;	2D;	2f#;	2a;	2dd;
==	==	==	==	==	==
*-	*-	*-	*-	*-	*-
!!chor2scor: -l 2 -s 0.6 -o %b.pmx
!!!YEC: Copyright 1994, David Huron
!!!YEC: Changes/Additions 2001 by Craig Stuart Sapp
!!!YEN: United States of America
!!!SMA: 371 Bach Chorales, edited by Ludwig Erk, C.F. Peters
!!!PDT: 1850, 1865
!!!ONB: Harmony and Root analysis done manually
